X:334
T: "Maria's Wallfahrt"
N: Z1014
O: Europa, Mitteleuropa, Deutschland, Niederrhein
R: Romanze, Ballade, Maria, geistlich, Geissler - Lied
M: 2/4
L: 1/16
K: A
E2 | A3B=c2A2 | B2=G2z4 |
B4A2E2 | A=GF2E2z2 |
A4B2e2 | d^de2B2
=cB | AGAB=c2B2 | A4z2

@@@ Tune index: 10092
